X:1     
T:Yankee Doodle
F:http://www.folkinfo.org/songs
B:Agay, Denes, Best Loved Songs of the American People, 1975, Doubleday
M:2/4     
L:1/16     
K:G
(D2 |{EF}G2)G2A2B2 |G2B2A2D2 |{EF}G2G2A2B2 | (G4 F2)
w: *Fath'r and I went down to camp, A-long with Cap-tain Good-in',
D2 |{EF}G2G2A2B2 |c2B2A2G2 |E2D2E2E2 |G4 G2 z2 |
w: And there we saw the men and boys as thick as has-ty pud-din'
([E3C3]FE2)D2 | [E2C2]F2 [G4E4]  |(D3ED2)C2 | (B,2C2) [D2B,2] z2 |
w: Yan-kee Doo-dle keep it up, Yan-kee Doo-dle Dan-*dy, 
([E3C3]FE2)D2 |[E2C2]F2G2E2 |D2G2F2A2 | G4 G2 z2 |]
w:Mind the mu-sic and the step And with the girls be han-dy 